assets/img/braze_icons/arrow-narrow-down-right.svg

<svg fill="none" height="24" viewBox="0 0 24 24" width="24" xmlns="http://www.w3.org/2000/svg"><path d="m6.70711 5.29289c-.39053-.39052-1.02369-.39052-1.41422 0-.39052.39053-.39052 1.02369 0 1.41422l10.29291 10.29289h-5.5858c-.55228 0-1 .4477-1 1s.44772 1 1 1h8c.5523 0 1-.4477 1-1v-8c0-.55228-.4477-1-1-1s-1 .44772-1 1v5.5858z" fill="#801ed7"/></svg>

<svg width="24" height="24" viewBox="0 0 24 24" fill="none" xmlns="http://www.w3.org/2000/svg">
<path d="M6.70711 5.29289C6.31658 4.90237 5.68342 4.90237 5.29289 5.29289C4.90237 5.68342 4.90237 6.31658 5.29289 6.70711L15.5858 17H10C9.44772 17 9 17.4477 9 18C9 18.5523 9.44772 19 10 19H18C18.5523 19 19 18.5523 19 18V10C19 9.44772 18.5523 9 18 9C17.4477 9 17 9.44772 17 10V15.5858L6.70711 5.29289Z" fill="#801ED7"/>
</svg>
